packages/core/src/svgs/clore.svg

<svg width="24" height="24" viewBox="0 0 24 24" fill="none" xmlns="http://www.w3.org/2000/svg">
<g clip-path="url(#clip0_31_8409)">
<path d="M0 0H24V24H0V0Z" fill="url(#paint0_linear_31_8409)"/>
<path d="M15.6428 6.17592C14.6438 5.53284 13.4877 5.17564 12.3 5.14307C11.0014 6.35164 11.0443 8.80735 12.3 9.93021C12.8228 7.86021 14.04 6.73735 15.6428 6.17592ZM17.1643 7.34164C15.21 7.25592 13.6928 9.02592 13.6928 10.7488C14.4228 10.236 15.2827 9.93978 16.1736 9.89429C17.0645 9.84879 17.9502 10.0559 18.7285 10.4916C18.4671 9.11164 17.9743 8.38307 17.1643 7.34164ZM18.8571 12.2574C17.64 10.9674 15.2571 11.0959 14.0828 12.3002C15.9985 12.7631 17.0357 13.6374 17.9014 15.5788C18.5632 14.6006 18.8978 13.4377 18.8571 12.2574ZM16.6885 17.0874C16.56 15.0174 15.1457 13.8002 13.26 13.6802C14.2328 15.3774 14.43 16.9588 13.56 18.6859C14.7206 18.4244 15.7966 17.8746 16.6885 17.0874ZM11.6957 18.8574C12.9557 17.6059 13.0414 15.5788 11.6957 14.0702C11.1771 16.1831 10.0457 17.2631 8.35282 17.8674C9.51854 18.5702 10.2814 18.7331 11.6957 18.8574ZM6.92139 16.6588C8.94854 16.4702 10.2643 15.1502 10.2643 13.2088C9.00425 14.1988 6.87854 14.3274 5.22854 13.5945C5.69139 14.9359 6.05568 15.6345 6.92139 16.6588ZM5.14282 11.7002C6.22711 12.8616 8.48568 13.0331 9.91711 11.7002C7.87711 11.2245 6.68139 10.0288 6.14139 8.4645C5.50476 9.42482 5.1581 10.5481 5.14282 11.7002ZM7.31139 6.95592C7.61568 9.02592 8.74711 10.1445 10.74 10.3202C9.73282 8.66164 9.65568 7.08449 10.3971 5.31449C8.96139 5.65735 8.20711 6.13735 7.31139 6.95592Z" fill="#F73737"/>
</g>
<defs>
<linearGradient id="paint0_linear_31_8409" x1="12" y1="0" x2="12" y2="24" gradientUnits="userSpaceOnUse">
<stop stop-color="#221212"/>
<stop offset="1" stop-color="#311114"/>
</linearGradient>
<clipPath id="clip0_31_8409">
<rect width="24" height="24" fill="white"/>
</clipPath>
</defs>
</svg>

<svg xmlns="http://www.w3.org/2000/svg" width="24" height="24" fill="none" viewBox="0 0 24 24"><g clip-path="url(#a)"><path fill="url(#b)" d="M0 0h24v24H0z"/><path fill="#F73737" d="M15.643 6.176A6.5 6.5 0 0 0 12.3 5.143c-1.299 1.209-1.256 3.664 0 4.787.523-2.07 1.74-3.193 3.343-3.754m1.521 1.166c-1.954-.086-3.471 1.684-3.471 3.407a4.74 4.74 0 0 1 5.036-.257c-.262-1.38-.755-2.109-1.565-3.15m1.693 4.915c-1.217-1.29-3.6-1.161-4.774.043 1.915.463 2.953 1.337 3.818 3.279a5.6 5.6 0 0 0 .956-3.322m-2.168 4.83c-.129-2.07-1.543-3.287-3.429-3.407.973 1.697 1.17 3.279.3 5.006a7.1 7.1 0 0 0 3.129-1.599m-4.993 1.77c1.26-1.251 1.345-3.278 0-4.787-.519 2.113-1.65 3.193-3.343 3.797 1.166.703 1.928.866 3.343.99M6.92 16.66c2.028-.189 3.343-1.509 3.343-3.45-1.26.99-3.385 1.118-5.035.386.462 1.34.827 2.04 1.692 3.064M5.143 11.7c1.084 1.162 3.343 1.333 4.774 0-2.04-.475-3.236-1.671-3.776-3.235a6 6 0 0 0-.998 3.235M7.31 6.956c.305 2.07 1.436 3.189 3.429 3.364-1.007-1.658-1.084-3.236-.343-5.006-1.436.343-2.19.823-3.086 1.642"/></g><defs><linearGradient id="b" x1="12" x2="12" y1="0" y2="24" gradientUnits="userSpaceOnUse"><stop stop-color="#221212"/><stop offset="1" stop-color="#311114"/></linearGradient><clipPath id="a"><path fill="#fff" d="M0 0h24v24H0z"/></clipPath></defs></svg>
